static/cards/FrenchDeck/default/card_hearts_10.svg

<svg width="219" height="304" viewBox="0 0 219 304" fill="none" xmlns="http://www.w3.org/2000/svg">
<g filter="url(#filter0_d_18_664)">
<g clip-path="url(#clip0_18_664)">
<rect x="8" y="4" width="203" height="288" rx="10" fill="white"/>
<path d="M15.4787 44.2002C14.3977 44.2002 13.737 43.4595 13.737 42.2783V18.395C13.737 17.2139 14.3977 16.4731 15.4787 16.4731C16.5598 16.4731 17.2404 17.2139 17.2404 18.395V42.2783C17.2404 43.4595 16.5598 44.2002 15.4787 44.2002ZM18.2454 30.8672V29.8662C18.2454 21.5781 21.7889 16.0928 27.9749 16.0928C34.1609 16.0928 37.6844 21.5781 37.6844 29.8662V30.8672C37.6844 39.1353 34.1409 44.5806 27.9549 44.5806C21.7889 44.5806 18.2454 39.1553 18.2454 30.8672ZM21.7488 29.8862V30.8271C21.7488 37.4937 24.1312 41.5576 27.9749 41.5576C31.8187 41.5576 34.201 37.4937 34.201 30.8271V29.8862C34.201 23.2197 31.7986 19.1357 27.9549 19.1357C24.1312 19.1357 21.7488 23.2197 21.7488 29.8862Z" fill="#BC1E24"/>
<path d="M21.7347 53.0006C24.4518 53.042 25.5069 55.3984 25.8537 56.5094C25.8888 56.6218 26.1122 56.6217 26.1472 56.5093C26.4938 55.3983 27.5482 53.042 30.2653 53.0006C33.8229 52.9462 36.4995 56.9292 34.0587 60.9289C31.8832 64.4939 26.0821 71 26 71C25.9165 71 20.1169 64.4943 17.9413 60.9289C15.5005 56.9291 18.177 52.9462 21.7347 53.0006Z" fill="#BC1E24"/>
<path d="M203.521 251.8C204.602 251.8 205.263 252.541 205.263 253.722L205.263 277.605C205.263 278.786 204.602 279.527 203.521 279.527C202.44 279.527 201.76 278.786 201.76 277.605L201.76 253.722C201.76 252.541 202.44 251.8 203.521 251.8ZM200.755 265.133L200.755 266.134C200.755 274.422 197.211 279.907 191.025 279.907C184.839 279.907 181.316 274.422 181.316 266.134L181.316 265.133C181.316 256.865 184.859 251.419 191.045 251.419C197.211 251.419 200.755 256.845 200.755 265.133ZM197.251 266.114L197.251 265.173C197.251 258.506 194.869 254.442 191.025 254.442C187.181 254.442 184.799 258.506 184.799 265.173L184.799 266.114C184.799 272.78 187.201 276.864 191.045 276.864C194.869 276.864 197.251 272.78 197.251 266.114Z" fill="#BC1E24"/>
<path d="M197.265 242.999C194.548 242.958 193.493 240.602 193.146 239.491C193.111 239.378 192.888 239.378 192.853 239.491C192.506 240.602 191.452 242.958 188.735 242.999C185.177 243.054 182.501 239.071 184.941 235.071C187.117 231.506 192.918 225 193 225C193.083 225 198.883 231.506 201.059 235.071C203.499 239.071 200.823 243.054 197.265 242.999Z" fill="#BC1E24"/>
<path d="M55.2207 30.2514C61.7689 30.3516 64.3116 36.0461 65.1476 38.731C65.2321 39.0026 65.7704 39.0025 65.8549 38.7309C66.6901 36.0459 69.2313 30.3516 75.7794 30.2514C84.3533 30.1199 90.8039 39.7455 84.9216 49.4115C79.6786 58.0269 65.6979 73.75 65.5 73.75C65.2989 73.7499 51.3219 58.0278 46.0785 49.4115C40.1963 39.7454 46.6467 30.1199 55.2207 30.2514Z" fill="#BC1E24"/>
<path d="M55.2207 201.749C61.7689 201.648 64.3116 195.954 65.1476 193.269C65.2321 192.997 65.7704 192.997 65.8549 193.269C66.6901 195.954 69.2313 201.648 75.7794 201.749C84.3533 201.88 90.8039 192.255 84.9216 182.589C79.6786 173.973 65.6979 158.25 65.5 158.25C65.2989 158.25 51.3219 173.972 46.0785 182.589C40.1963 192.255 46.6467 201.88 55.2207 201.749Z" fill="#BC1E24"/>
<path d="M143.221 30.2514C149.769 30.3516 152.312 36.0461 153.148 38.731C153.232 39.0026 153.77 39.0025 153.855 38.7309C154.69 36.0459 157.231 30.3516 163.779 30.2514C172.353 30.1199 178.804 39.7455 172.922 49.4115C167.679 58.0269 153.698 73.75 153.5 73.75C153.299 73.7499 139.322 58.0278 134.079 49.4115C128.196 39.7454 134.647 30.1199 143.221 30.2514Z" fill="#BC1E24"/>
<path d="M55.2207 94.2514C61.7689 94.3516 64.3116 100.046 65.1476 102.731C65.2321 103.003 65.7704 103.003 65.8549 102.731C66.6901 100.046 69.2313 94.3516 75.7794 94.2514C84.3533 94.1199 90.8039 103.745 84.9216 113.411C79.6786 122.027 65.6979 137.75 65.5 137.75C65.2989 137.75 51.3219 122.028 46.0785 113.411C40.1963 103.745 46.6467 94.1199 55.2207 94.2514Z" fill="#BC1E24"/>
<path d="M55.2207 265.749C61.7689 265.648 64.3116 259.954 65.1476 257.269C65.2321 256.997 65.7704 256.997 65.8549 257.269C66.6901 259.954 69.2313 265.648 75.7794 265.749C84.3533 265.88 90.8039 256.255 84.9216 246.589C79.6786 237.973 65.6979 222.25 65.5 222.25C65.2989 222.25 51.3219 237.972 46.0785 246.589C40.1963 256.255 46.6467 265.88 55.2207 265.749Z" fill="#BC1E24"/>
<path d="M143.221 94.2514C149.769 94.3516 152.312 100.046 153.148 102.731C153.232 103.003 153.77 103.003 153.855 102.731C154.69 100.046 157.231 94.3516 163.779 94.2514C172.353 94.1199 178.804 103.745 172.922 113.411C167.679 122.027 153.698 137.75 153.5 137.75C153.299 137.75 139.322 122.028 134.079 113.411C128.196 103.745 134.647 94.1199 143.221 94.2514Z" fill="#BC1E24"/>
<path d="M99.2207 62.2514C105.769 62.3516 108.312 68.0461 109.148 70.731C109.232 71.0026 109.77 71.0025 109.855 70.7309C110.69 68.0459 113.231 62.3516 119.779 62.2514C128.353 62.1199 134.804 71.7455 128.922 81.4115C123.679 90.0269 109.698 105.75 109.5 105.75C109.299 105.75 95.3219 90.0278 90.0785 81.4115C84.1963 71.7454 90.6467 62.1199 99.2207 62.2514Z" fill="#BC1E24"/>
<path d="M99.2207 233.749C105.769 233.648 108.312 227.954 109.148 225.269C109.232 224.997 109.77 224.997 109.855 225.269C110.69 227.954 113.231 233.648 119.779 233.749C128.353 233.88 134.804 224.255 128.922 214.589C123.679 205.973 109.698 190.25 109.5 190.25C109.299 190.25 95.3219 205.972 90.0785 214.589C84.1963 224.255 90.6467 233.88 99.2207 233.749Z" fill="#BC1E24"/>
<path d="M143.221 265.749C149.769 265.648 152.312 259.954 153.148 257.269C153.232 256.997 153.77 256.997 153.855 257.269C154.69 259.954 157.231 265.648 163.779 265.749C172.353 265.88 178.804 256.255 172.922 246.589C167.679 237.973 153.698 222.25 153.5 222.25C153.299 222.25 139.322 237.972 134.079 246.589C128.196 256.255 134.647 265.88 143.221 265.749Z" fill="#BC1E24"/>
<path d="M143.221 201.749C149.769 201.648 152.312 195.954 153.148 193.269C153.232 192.997 153.77 192.997 153.855 193.269C154.69 195.954 157.231 201.648 163.779 201.749C172.353 201.88 178.804 192.255 172.922 182.589C167.679 173.973 153.698 158.25 153.5 158.25C153.299 158.25 139.322 173.972 134.079 182.589C128.196 192.255 134.647 201.88 143.221 201.749Z" fill="#BC1E24"/>
</g>
</g>
<defs>
<filter id="filter0_d_18_664" x="0" y="0" width="219" height="304" filterUnits="userSpaceOnUse" color-interpolation-filters="sRGB">
<feFlood flood-opacity="0" result="BackgroundImageFix"/>
<feColorMatrix in="SourceAlpha" type="matrix" values="0 0 0 0 0 0 0 0 0 0 0 0 0 0 0 0 0 0 127 0" result="hardAlpha"/>
<feOffset dy="4"/>
<feGaussianBlur stdDeviation="4"/>
<feComposite in2="hardAlpha" operator="out"/>
<feColorMatrix type="matrix" values="0 0 0 0 0.614771 0 0 0 0 0.70094 0 0 0 0 0.806257 0 0 0 1 0"/>
<feBlend mode="normal" in2="BackgroundImageFix" result="effect1_dropShadow_18_664"/>
<feBlend mode="normal" in="SourceGraphic" in2="effect1_dropShadow_18_664" result="shape"/>
</filter>
<clipPath id="clip0_18_664">
<rect x="8" y="4" width="203" height="288" rx="10" fill="white"/>
</clipPath>
</defs>
</svg>

<svg xmlns="http://www.w3.org/2000/svg" width="219" height="304" fill="none" viewBox="0 0 219 304"><g filter="url(#a)"><g clip-path="url(#b)"><rect width="203" height="288" x="8" y="4" fill="#fff" rx="10"/><path fill="#bc1e24" d="M15.479 44.2c-1.081 0-1.742-.74-1.742-1.922V18.395c0-1.181.66-1.922 1.742-1.922 1.08 0 1.761.74 1.761 1.922v23.883c0 1.181-.68 1.922-1.761 1.922m2.766-13.333v-1c0-8.289 3.544-13.774 9.73-13.774s9.71 5.485 9.71 13.773v1.001c0 8.268-3.544 13.714-9.73 13.714-6.166 0-9.71-5.426-9.71-13.714m3.504-.98v.94c0 6.667 2.382 10.73 6.226 10.73s6.226-4.063 6.226-10.73v-.94c0-6.667-2.402-10.751-6.246-10.751-3.824 0-6.206 4.084-6.206 10.75M21.735 53c2.717.042 3.772 2.398 4.119 3.51.035.112.258.112.293 0 .347-1.112 1.401-3.468 4.118-3.51 3.558-.054 6.234 3.93 3.794 7.929C31.883 64.494 26.082 71 26 71c-.084 0-5.883-6.506-8.059-10.071-2.44-4 .236-7.983 3.794-7.928M203.521 251.8c1.081 0 1.742.741 1.742 1.922v23.883c0 1.181-.661 1.922-1.742 1.922s-1.761-.741-1.761-1.922v-23.883c0-1.181.68-1.922 1.761-1.922m-2.766 13.333v1.001c0 8.288-3.544 13.773-9.73 13.773s-9.709-5.485-9.709-13.773v-1.001c0-8.268 3.543-13.714 9.729-13.714 6.166 0 9.71 5.426 9.71 13.714m-3.504.981v-.941c0-6.667-2.382-10.731-6.226-10.731s-6.226 4.064-6.226 10.731v.941c0 6.666 2.402 10.75 6.246 10.75 3.824 0 6.206-4.084 6.206-10.75M197.265 242.999c-2.717-.041-3.772-2.397-4.119-3.508-.035-.113-.258-.113-.293 0-.347 1.111-1.401 3.467-4.118 3.508-3.558.055-6.234-3.928-3.794-7.928C187.117 231.506 192.918 225 193 225c.083 0 5.883 6.506 8.059 10.071 2.44 4-.236 7.983-3.794 7.928M55.22 30.251c6.549.1 9.092 5.795 9.928 8.48.084.272.622.271.707 0 .835-2.685 3.376-8.38 9.924-8.48 8.574-.131 15.025 9.494 9.143 19.16C79.679 58.027 65.698 73.75 65.5 73.75c-.201 0-14.178-15.722-19.421-24.339-5.883-9.666.568-19.291 9.142-19.16M55.22 201.749c6.549-.101 9.092-5.795 9.928-8.48.084-.272.622-.272.707 0 .835 2.685 3.376 8.379 9.924 8.48 8.574.131 15.025-9.494 9.143-19.16-5.243-8.616-19.224-24.339-19.422-24.339-.201 0-14.178 15.722-19.421 24.339-5.883 9.666.568 19.291 9.142 19.16M143.221 30.251c6.548.1 9.091 5.795 9.927 8.48.084.272.622.271.707 0 .835-2.685 3.376-8.38 9.924-8.48 8.574-.131 15.025 9.494 9.143 19.16-5.243 8.616-19.224 24.339-19.422 24.339-.201 0-14.178-15.722-19.421-24.339-5.883-9.666.568-19.291 9.142-19.16M55.22 94.251c6.549.1 9.092 5.795 9.928 8.48.084.272.622.272.707 0 .835-2.685 3.376-8.38 9.924-8.48 8.574-.131 15.025 9.494 9.143 19.16-5.243 8.616-19.224 24.339-19.422 24.339-.201 0-14.178-15.722-19.421-24.339-5.883-9.666.568-19.291 9.142-19.16M55.22 265.749c6.549-.101 9.092-5.795 9.928-8.48.084-.272.622-.272.707 0 .835 2.685 3.376 8.379 9.924 8.48 8.574.131 15.025-9.494 9.143-19.16-5.243-8.616-19.224-24.339-19.422-24.339-.201 0-14.178 15.722-19.421 24.339-5.883 9.666.568 19.291 9.142 19.16M143.221 94.251c6.548.1 9.091 5.795 9.927 8.48.084.272.622.272.707 0 .835-2.685 3.376-8.38 9.924-8.48 8.574-.131 15.025 9.494 9.143 19.16-5.243 8.616-19.224 24.339-19.422 24.339-.201 0-14.178-15.722-19.421-24.339-5.883-9.666.568-19.291 9.142-19.16M99.22 62.251c6.549.1 9.092 5.795 9.928 8.48.084.272.622.272.707 0 .835-2.685 3.376-8.38 9.924-8.48 8.574-.131 15.025 9.495 9.143 19.16-5.243 8.616-19.224 24.339-19.422 24.339-.201 0-14.178-15.722-19.421-24.338-5.883-9.667.568-19.292 9.142-19.16M99.22 233.749c6.549-.101 9.092-5.795 9.928-8.48.084-.272.622-.272.707 0 .835 2.685 3.376 8.379 9.924 8.48 8.574.131 15.025-9.494 9.143-19.16-5.243-8.616-19.224-24.339-19.422-24.339-.201 0-14.178 15.722-19.421 24.339-5.883 9.666.568 19.291 9.142 19.16M143.221 265.749c6.548-.101 9.091-5.795 9.927-8.48.084-.272.622-.272.707 0 .835 2.685 3.376 8.379 9.924 8.48 8.574.131 15.025-9.494 9.143-19.16-5.243-8.616-19.224-24.339-19.422-24.339-.201 0-14.178 15.722-19.421 24.339-5.883 9.666.568 19.291 9.142 19.16M143.221 201.749c6.548-.101 9.091-5.795 9.927-8.48.084-.272.622-.272.707 0 .835 2.685 3.376 8.379 9.924 8.48 8.574.131 15.025-9.494 9.143-19.16-5.243-8.616-19.224-24.339-19.422-24.339-.201 0-14.178 15.722-19.421 24.339-5.883 9.666.568 19.291 9.142 19.16"/></g></g><defs><clipPath id="b"><rect width="203" height="288" x="8" y="4" fill="#fff" rx="10"/></clipPath><filter id="a" width="219" height="304" x="0" y="0" color-interpolation-filters="sRGB" filterUnits="userSpaceOnUse"><feFlood flood-opacity="0" result="BackgroundImageFix"/><feColorMatrix in="SourceAlpha" result="hardAlpha" values="0 0 0 0 0 0 0 0 0 0 0 0 0 0 0 0 0 0 127 0"/><feOffset dy="4"/><feGaussianBlur stdDeviation="4"/><feComposite in2="hardAlpha" operator="out"/><feColorMatrix values="0 0 0 0 0.614771 0 0 0 0 0.70094 0 0 0 0 0.806257 0 0 0 1 0"/><feBlend in2="BackgroundImageFix" result="effect1_dropShadow_18_664"/><feBlend in="SourceGraphic" in2="effect1_dropShadow_18_664" result="shape"/></filter></defs></svg>
